public/build/img/sistema/editar_usuario.svg

<svg width="51" height="46" viewBox="0 0 51 46" fill="none" xmlns="http://www.w3.org/2000/svg">
<g clip-path="url(#clip0_11_14)">
<path d="M35.6071 41.9286H36.1824L36.1023 41.359C35.2734 35.4638 30.2081 30.9286 24.0893 30.9286H15.9286C9.80976 30.9286 4.74444 35.4638 3.91558 41.359L4.40179 41.4273V41.4286V41.9286H4.41071H4.84533H35.6071ZM27.6429 11.4286C27.6429 9.40156 26.8376 7.45757 25.4043 6.02426C23.971 4.59094 22.027 3.78571 20 3.78571C17.973 3.78571 16.029 4.59094 14.5957 6.02426C13.1624 7.45757 12.3571 9.40156 12.3571 11.4286C12.3571 13.4556 13.1624 15.3996 14.5957 16.8329C16.029 18.2662 17.973 19.0714 20 19.0714C22.027 19.0714 23.971 18.2662 25.4043 16.8329C26.8376 15.3996 27.6429 13.4556 27.6429 11.4286ZM9.07143 11.4286C9.07143 8.53013 10.2228 5.75041 12.2723 3.7009C14.3218 1.6514 17.1016 0.5 20 0.5C22.8984 0.5 25.6782 1.6514 27.7277 3.7009C29.7772 5.75041 30.9286 8.53013 30.9286 11.4286C30.9286 14.327 29.7772 17.1067 27.7277 19.1562C25.6782 21.2057 22.8984 22.3571 20 22.3571C17.1016 22.3571 14.3218 21.2057 12.2723 19.1562C10.2228 17.1067 9.07143 14.327 9.07143 11.4286ZM0.5 43.0625C0.5 34.544 7.40114 27.6429 15.9196 27.6429H24.0804C32.5989 27.6429 39.5 34.544 39.5 43.0625C39.5 44.2506 38.5364 45.2143 37.3482 45.2143H2.65179C1.46364 45.2143 0.5 44.2506 0.5 43.0625Z" fill="#F5F5F5" stroke="#FFFCFC"/>
</g>
<path d="M43.7289 15.8798L41.3631 18.1508L47.7176 24.2507L50.0835 21.9797C51.3055 20.8066 51.3055 18.9063 50.0835 17.7332L48.1576 15.8798C46.9355 14.7067 44.9558 14.7067 43.7338 15.8798H43.7289ZM40.2583 19.2113L28.8641 30.1536C28.3557 30.6416 27.9842 31.2469 27.7789 31.9085L26.0485 37.5532C25.9263 37.9521 26.0388 38.3791 26.3418 38.67C26.6449 38.9609 27.0897 39.0688 27.5003 38.9562L33.3807 37.2952C34.07 37.0981 34.7005 36.7415 35.2089 36.2535L46.6129 25.3112L40.2583 19.2113Z" fill="white"/>
<defs>
<clipPath id="clip0_11_14">
<rect width="40" height="45.7143" fill="white"/>
</clipPath>
</defs>
</svg>

<svg width="51" height="46" fill="none" xmlns="http://www.w3.org/2000/svg"><g clip-path="url(#a)"><path d="M35.607 41.929h.575l-.08-.57c-.829-5.895-5.894-10.43-12.013-10.43h-8.16c-6.12 0-11.185 4.535-12.013 10.43l.486.068v.502h31.205Zm-7.964-30.5a7.643 7.643 0 1 0-15.286 0 7.643 7.643 0 0 0 15.286 0Zm-18.572 0a10.929 10.929 0 1 1 21.858 0 10.929 10.929 0 0 1-21.858 0ZM.5 43.062c0-8.518 6.901-15.42 15.42-15.42h8.16c8.519 0 15.42 6.902 15.42 15.42a2.152 2.152 0 0 1-2.152 2.152H2.652A2.152 2.152 0 0 1 .5 43.063Z" fill="#F5F5F5" stroke="#FFFCFC"/></g><path d="m43.729 15.88-2.366 2.27 6.355 6.1 2.365-2.27a2.918 2.918 0 0 0 0-4.247l-1.925-1.853c-1.223-1.173-3.202-1.173-4.424 0h-.005Zm-3.47 3.331L28.863 30.154a4.13 4.13 0 0 0-1.085 1.755l-1.73 5.644c-.123.4-.01.826.293 1.117.303.29.748.399 1.158.286l5.88-1.66a4.375 4.375 0 0 0 1.829-1.042L46.613 25.31l-6.355-6.1Z" fill="#fff"/><defs><clipPath id="a"><path fill="#fff" d="M0 0h40v45.714H0z"/></clipPath></defs></svg>
